WebSitesСreation/FirstConcrete/dist/img/icons/2.svg

<?xml version='1.0' encoding='utf-8'?>
<!DOCTYPE svg PUBLIC '-//W3C//DTD SVG 1.1//EN' 'http://www.w3.org/Graphics/SVG/1.1/DTD/svg11.dtd'>
<svg version="1.1" xmlns="http://www.w3.org/2000/svg" viewBox="0 0 512 512" xmlns:xlink="http://www.w3.org/1999/xlink" enable-background="new 0 0 512 512">
  <g>
    <g >
      <path d="m31.9,125.9h73.8v-73.7h-73.8v73.7h-7.10543e-15zm84.1,20.9h-94.6c-5.8,0-10.4-4.7-10.4-10.4v-94.7c0-5.8 4.7-10.4 10.4-10.4h94.6c5.8,0 10.4,4.7 10.4,10.4v94.6c0.1,5.8-4.6,10.5-10.4,10.5z"/>
      <path d="m490.6,99.5h-324.5c-5.8,0-10.4-4.7-10.4-10.4 0-5.8 4.7-10.4 10.4-10.4h324.5c5.8,0 10.4,4.7 10.4,10.4 0,5.7-4.7,10.4-10.4,10.4z"/>
      <path d="m31.9,292.9h73.8v-73.8h-73.8v73.8h-7.10543e-15zm84.1,20.8h-94.6c-5.8,0-10.4-4.7-10.4-10.4v-94.6c0-5.8 4.7-10.4 10.4-10.4h94.6c5.8,0 10.4,4.7 10.4,10.4v94.6c0.1,5.8-4.6,10.4-10.4,10.4z"/>
      <path d="m490.6,266.4h-324.5c-5.8,0-10.4-4.7-10.4-10.4 0-5.8 4.7-10.4 10.4-10.4h324.5c5.8,0 10.4,4.7 10.4,10.4 0,5.8-4.7,10.4-10.4,10.4z"/>
      <path d="m31.9,459.8h73.8v-73.8h-73.8v73.8h-7.10543e-15zm84.1,20.9h-94.6c-5.8,0-10.4-4.7-10.4-10.4v-94.6c0-5.8 4.7-10.4 10.4-10.4h94.6c5.8,0 10.4,4.7 10.4,10.4v94.6c0.1,5.7-4.6,10.4-10.4,10.4z"/>
      <path d="m490.6,433.4h-324.5c-5.8,0-10.4-4.7-10.4-10.4s4.7-10.4 10.4-10.4h324.5c5.8,0 10.4,4.7 10.4,10.4s-4.7,10.4-10.4,10.4z"/>
    </g>
  </g>
</svg>

<svg xmlns="http://www.w3.org/2000/svg" viewBox="0 0 512 512" fill="#fdcc13">
  <path d="M31.9 125.9h73.8V52.2H31.9v73.7zm84.1 20.9H21.4c-5.8 0-10.4-4.7-10.4-10.4V41.7c0-5.8 4.7-10.4 10.4-10.4H116c5.8 0 10.4 4.7 10.4 10.4v94.6c.1 5.8-4.6 10.5-10.4 10.5zM490.6 99.5H166.1a10.4 10.4 0 110-20.8h324.5a10.4 10.4 0 110 20.8zM31.9 292.9h73.8v-73.8H31.9v73.8zm84.1 20.8H21.4c-5.8 0-10.4-4.7-10.4-10.4v-94.6c0-5.8 4.7-10.4 10.4-10.4H116c5.8 0 10.4 4.7 10.4 10.4v94.6c.1 5.8-4.6 10.4-10.4 10.4zM490.6 266.4H166.1a10.4 10.4 0 110-20.8h324.5a10.4 10.4 0 110 20.8zM31.9 459.8h73.8V386H31.9v73.8zm84.1 20.9H21.4c-5.8 0-10.4-4.7-10.4-10.4v-94.6c0-5.8 4.7-10.4 10.4-10.4H116c5.8 0 10.4 4.7 10.4 10.4v94.6c.1 5.7-4.6 10.4-10.4 10.4zM490.6 433.4H166.1a10.4 10.4 0 110-20.8h324.5a10.4 10.4 0 110 20.8z"/>
</svg>
